apps/scalable/bitcoin.svg

<?xml version="1.0" encoding="UTF-8" standalone="no"?>
<!-- Created with Inkscape (http://www.inkscape.org/) -->

<svg
   xmlns:dc="http://purl.org/dc/elements/1.1/"
   xmlns:cc="http://creativecommons.org/ns#"
   xmlns:rdf="http://www.w3.org/1999/02/22-rdf-syntax-ns#"
   xmlns:svg="http://www.w3.org/2000/svg"
   xmlns="http://www.w3.org/2000/svg"
   xmlns:sodipodi="http://sodipodi.sourceforge.net/DTD/sodipodi-0.dtd"
   xmlns:inkscape="http://www.inkscape.org/namespaces/inkscape"
   version="1.1"
   width="500"
   height="500"
   id="svg2"
   inkscape:version="0.48.5 r10040"
   sodipodi:docname="bitcoin.svg">
  <sodipodi:namedview
     pagecolor="#ffffff"
     bordercolor="#666666"
     borderopacity="1"
     objecttolerance="10"
     gridtolerance="10"
     guidetolerance="10"
     inkscape:pageopacity="0"
     inkscape:pageshadow="2"
     inkscape:window-width="1366"
     inkscape:window-height="716"
     id="namedview6"
     showgrid="false"
     inkscape:zoom="0.79465333"
     inkscape:cx="91.754393"
     inkscape:cy="156.55753"
     inkscape:window-x="0"
     inkscape:window-y="0"
     inkscape:window-maximized="1"
     inkscape:current-layer="svg2" />
  <metadata
     id="metadata8">
    <rdf:RDF>
      <cc:Work
         rdf:about="">
        <dc:format>image/svg+xml</dc:format>
        <dc:type
           rdf:resource="http://purl.org/dc/dcmitype/StillImage" />
        <dc:title />
      </cc:Work>
    </rdf:RDF>
  </metadata>
  <defs
     id="defs6" />
  <path
     style="fill:#ff6600"
     d="m 238.97968,444.77698 0.82309,-29.63132 13.99257,0 13.99257,0 0.82309,29.63132 0.82309,29.63132 13.99257,0 13.99256,0 0.8231,-29.63132 0.82309,-29.63132 28.80822,-1.01021 c 15.84453,-0.55564 31.03739,-1.74914 33.76194,-2.65223 18.25963,-6.05251 40.47037,-24.54728 48.05357,-40.01396 11.75206,-23.96946 11.44302,-53.62814 -0.79511,-76.30605 -5.58535,-10.34998 -20.09782,-25.24042 -30.41516,-31.20736 -4.30889,-2.492 -13.04438,-5.85401 -19.41225,-7.47114 -6.36785,-1.61715 -11.60346,-3.49675 -11.63465,-4.17688 -0.0313,-0.68016 4.5805,-5.4331 10.24822,-10.56209 12.39723,-11.21886 21.35399,-24.59788 26.42195,-39.46745 5.67736,-16.65759 5.35126,-41.28192 -0.76792,-57.9867 C 370.88965,110.31912 341.845,88.722264 303.18087,84.691665 l -4.11546,-0.429029 -0.82309,-29.631318 -0.8231,-29.631317 -13.99256,0 -13.99257,0 -0.82309,29.631317 -0.82309,29.631318 -13.99257,0 -13.99257,0 -0.82309,-29.631318 -0.82309,-29.631317 -13.99257,0 -13.99257,0 -0.82309,29.631317 -0.82309,29.631318 -59.26263,0.823092 L 90,85.90882 l 0,13.169475 0,13.169475 28.80823,0.82309 28.80822,0.82309 0,135.81019 0,135.8102 -28.80822,0.8231 L 90,387.16053 90,400.33 l 0,13.16948 59.26264,0.82309 59.26263,0.82309 0.42534,27.98514 c 0.23392,15.39182 0.77784,28.94125 1.20868,30.10986 0.57371,1.5561 4.42478,1.99666 14.39032,1.64618 l 13.60698,-0.47854 0.82309,-29.63132 z"
     id="path2986"
     inkscape:connector-curvature="0" />
  <path
     style="fill:#ffffff"
     d="m 240.16763,386.97667 c -0.65337,-0.65339 -1.18795,-24.6903 -1.18795,-53.41538 0,-46.10596 0.3052,-52.34452 2.60392,-53.22662 3.48031,-1.33553 78.81249,-1.28423 88.6222,0.0604 11.67266,1.59991 26.89491,11.45785 34.19935,22.14752 8.32203,12.17886 12.17126,27.89679 9.67839,39.52067 -4.11437,19.18463 -14.43141,33.02828 -30.57116,41.02115 -8.09183,4.00731 -9.02446,4.08466 -55.19386,4.57822 -25.82962,0.27613 -47.49752,-0.0326 -48.15089,-0.6859 z"
     id="path2984"
     inkscape:connector-curvature="0" />
  <path
     style="fill:#ffffff"
     d="M 241.01484,230.22517 C 239.39197,229.195 239.03,216.80319 239.36866,173.86856 l 0.43411,-55.03607 31.2775,0 c 31.16565,0 31.31221,0.017 40.98012,4.76406 12.3096,6.04411 20.64382,14.37833 26.68794,26.68793 4.19087,8.53524 4.7615,11.48515 4.7429,24.51827 -0.024,16.85629 -3.40989,26.0431 -13.86212,37.61248 -13.92695,15.41547 -25.92831,19.19008 -60.90535,19.15568 -14.09575,-0.0132 -26.56475,-0.61944 -27.70892,-1.34574 z"
     id="path2999"
     inkscape:connector-curvature="0" />
</svg>

<?xml version="1.0" encoding="UTF-8" standalone="no"?>
<!-- Created with Inkscape (http://www.inkscape.org/) -->

<svg
   xmlns:dc="http://purl.org/dc/elements/1.1/"
   xmlns:cc="http://creativecommons.org/ns#"
   xmlns:rdf="http://www.w3.org/1999/02/22-rdf-syntax-ns#"
   xmlns:svg="http://www.w3.org/2000/svg"
   xmlns="http://www.w3.org/2000/svg"
   xmlns:sodipodi="http://sodipodi.sourceforge.net/DTD/sodipodi-0.dtd"
   xmlns:inkscape="http://www.inkscape.org/namespaces/inkscape"
   version="1.1"
   width="500"
   height="500"
   id="svg2"
   inkscape:version="0.92.1 r15371"
   sodipodi:docname="bitcoin.svg">
  <sodipodi:namedview
     pagecolor="#ffffff"
     bordercolor="#666666"
     borderopacity="1"
     objecttolerance="10"
     gridtolerance="10"
     guidetolerance="10"
     inkscape:pageopacity="0"
     inkscape:pageshadow="2"
     inkscape:window-width="1366"
     inkscape:window-height="709"
     id="namedview6"
     showgrid="false"
     inkscape:zoom="0.79465333"
     inkscape:cx="366.71706"
     inkscape:cy="357.90319"
     inkscape:window-x="0"
     inkscape:window-y="0"
     inkscape:window-maximized="1"
     inkscape:current-layer="svg2" />
  <metadata
     id="metadata8">
    <rdf:RDF>
      <cc:Work
         rdf:about="">
        <dc:format>image/svg+xml</dc:format>
        <dc:type
           rdf:resource="http://purl.org/dc/dcmitype/StillImage" />
        <dc:title />
      </cc:Work>
    </rdf:RDF>
  </metadata>
  <defs
     id="defs6" />
  <path
     style="fill:#ff6600"
     d="M 210.17188 25 L 209.34766 54.630859 L 208.52539 84.261719 L 149.26172 85.085938 L 90 85.908203 L 90 99.078125 L 90 112.24805 L 118.80859 113.07031 L 147.61719 113.89453 L 147.61719 249.70508 L 147.61719 385.51367 L 118.80859 386.33789 L 90 387.16016 L 90 400.33008 L 90 413.5 L 149.26172 414.32227 L 208.52539 415.14648 L 208.95117 443.13086 C 209.18509 458.52268 209.72932 472.07162 210.16016 473.24023 C 210.73387 474.79633 214.58329 475.2372 224.54883 474.88672 L 238.15625 474.4082 L 238.98047 444.77734 L 239.80273 415.14648 L 253.79492 415.14648 L 267.78711 415.14648 L 268.61133 444.77734 L 269.43359 474.4082 L 283.42578 474.4082 L 297.41992 474.4082 L 298.24219 444.77734 L 299.06445 415.14648 L 327.87305 414.13477 C 343.71758 413.57913 358.91022 412.38551 361.63477 411.48242 C 379.8944 405.42991 402.10625 386.93543 409.68945 371.46875 C 421.44151 347.49929 421.13266 317.84197 408.89453 295.16406 C 403.30918 284.81408 388.79586 269.92202 378.47852 263.95508 C 374.16963 261.46308 365.43428 258.1015 359.06641 256.48438 C 352.69856 254.86722 347.46283 252.98872 347.43164 252.30859 C 347.40034 251.62843 352.01197 246.87508 357.67969 241.74609 C 370.07692 230.52723 379.0336 217.14691 384.10156 202.27734 C 389.77892 185.61975 389.45316 160.9958 383.33398 144.29102 C 370.88941 110.31855 341.84577 88.722005 303.18164 84.691406 L 299.06445 84.261719 L 298.24219 54.630859 L 297.41992 25 L 283.42578 25 L 269.43359 25 L 268.61133 54.630859 L 267.78711 84.261719 L 253.79492 84.261719 L 239.80273 84.261719 L 238.98047 54.630859 L 238.15625 25 L 224.16406 25 L 210.17188 25 z M 239.80273 118.83203 L 271.08008 118.83203 C 302.24573 118.83203 302.39264 118.84864 312.06055 123.5957 C 324.37015 129.63981 332.70393 137.97556 338.74805 150.28516 C 342.93892 158.8204 343.51079 161.76961 343.49219 174.80273 C 343.46819 191.65902 340.08114 200.84664 329.62891 212.41602 C 315.70196 227.83149 303.70165 231.60471 268.72461 231.57031 C 254.62886 231.55711 242.1598 230.95091 241.01562 230.22461 C 239.39275 229.19444 239.03048 216.80377 239.36914 173.86914 L 239.80273 118.83203 z M 283.52148 279.35938 C 304.01578 279.37334 325.30022 279.72222 330.20508 280.39453 C 341.87774 281.99444 357.09986 291.8533 364.4043 302.54297 C 372.72633 314.72183 376.57685 330.43862 374.08398 342.0625 C 369.96961 361.24713 359.65147 375.09111 343.51172 383.08398 C 335.41989 387.09129 334.48776 387.16855 288.31836 387.66211 C 262.48874 387.93824 240.82134 387.62986 240.16797 386.97656 C 239.5146 386.32317 238.98047 362.28563 238.98047 333.56055 C 238.98047 287.45459 239.28526 281.21608 241.58398 280.33398 C 243.32414 279.66622 263.02719 279.34541 283.52148 279.35938 z "
     id="path2986" />
</svg>
